X:1
T:E minor Samuel Babcock, 1795
T:John Relly, 1776        76. 76. 78. 76.
T:Andover
T:Transcribed from The Middlesex Harmony, 1795.
%%score [ 1 2 3 ]
L:1/8
Q:1/4=110
M:2/4
K:G
V:1 treble nm="Treble" snm="Tr."
V:2 treble-8 nm="Tenor" snm="T."
V:3 bass nm="Bass" snm="B."
V:1
 BA GF | EF GA | Bc dc | !fermata!B2 G2 | G2 de | d2 c2 | B4 | B2 e2 | e2 d2 | d2 e2 | %10
w: 1.~My * Re- *|dee- * mer, *|let * me *|be Quite|hap- py *|at thy|feet,|Still to|know my-|self and|
w: 2.~I * have *|foo- * lish- *|ly * a- *|bused My|Sa- vior's *|blee- ding|love;|All thy|gifts, my|God, mis-|
 !fermata!B2 GA | B2 e2 | e2 ^d2 | e4 | z4 |: B2 G2 | B2 G2 | B2 c2 | B2 ^d2 | e2 e2 | B2 B2 | %21
w: thee, Be *|this my|bit- ter|sweet;||Look up-|on my|in- fant|state, And|with a|Fa- ther's|
w: used, When *|by temp-|ta- tion|drove:||Just- ly|I de-|served to|be For-|sa- ken|by my|
 BA A2 | B4 | G2 G2 | A2 Bc | d2 e2 | B3 B | (B e2) e | d>c BB | B4 :| %30
w: year- * ning|bless;|Don't thy|ran- somed *|child for-|get, Nor|leave * me|in * * dis-|tress.|
w: Lord * and|God;|Yet shall|jus- tice *|plead for|me, For|whom * thou|shed * * thy|blood.|
V:2
 E2 B2 | c2 BA | BG F2 | !fermata!E2 B2 | e2 B2 | A2 G2 | F4 | E2 B2 | c2 B2 | A2 GA | %10
w: 3.~Thy blest|smiles, my *|gra- * cious|Lord, Shall|cheer my|droo- ping|heart;|I'm in-|struc- ted|in thy *|
w: 4.~There, re-|cli- ning *|on * thy|breast, Th'e-|ter- nal|sab- bath|find;|Pro- ving|in thee|per- fect *|
 !fermata!B2 e2 | BA GB | AG F2 | E4 | z4 |: e2 B2 | e2 B2 | eg fe | f3 f | g2 g2 | e2 e2 | d2 c2 | %22
w: word, That|thou * un- *|chan- * ging|art.||Draw me|to the|depth * pro- *|found Of|all thy|sor- rows,|blood and|
w: rest To|my * poor *|la- * boring|mind;||Wai- ting|till my|Lord * I *|see, And|be like|him for-|ev- er|
 B4 | e2 B2 | A2 G2 | F2 GE | B3 B | eB AG | (G F2) F | E4 :| %30
w: sweat,|Pas- sing|on, through|eve- ry *|wound, Un-|to * thy *|mer- * cy|seat.|
w: pure,|At the|heav'n- ly|ju- bi- *|lee, This|bliss * to *|me * is|sure.|
V:3
 E,2 E,2 | E,2 E,2 | B,,2 B,,2 | !fermata!E,2 E,2 | E,2 G,2 | F,2 E,2 | B,,4 | E,2 E,2 | E,2 G,2 | %9
 F,2 E,2 | !fermata!B,2 G,>F, | E,2 E,2 | A,,2 B,,2 | E,4 | z4 |: E,2 E,2 | G,2 G,2 | E,2 E,2 | %18
 B,2 B,,2 | E,2 E,2 | E,2 E,2 | F,2 F,2 | B,,4 | E,2 G,2 | F,2 E,2 | D,2 C,2 | B,,3 E, | E,2 A,,2 | %28
 B,,2 B,,2 | E,4 :| %30

